logos/search.svg

<?xml version="1.0" encoding="UTF-8" standalone="no"?>
<svg
   xmlns:dc="http://purl.org/dc/elements/1.1/"
   xmlns:cc="http://creativecommons.org/ns#"
   xmlns:rdf="http://www.w3.org/1999/02/22-rdf-syntax-ns#"
   xmlns:svg="http://www.w3.org/2000/svg"
   xmlns="http://www.w3.org/2000/svg"
   xmlns:sodipodi="http://sodipodi.sourceforge.net/DTD/sodipodi-0.dtd"
   xmlns:inkscape="http://www.inkscape.org/namespaces/inkscape"
   id="e0lirv1yvuvyd1"
   viewBox="0 0 499.170000 498.380000"
   width="500"
   height="500"
   shape-rendering="geometricPrecision"
   text-rendering="geometricPrecision"
   version="1.1"
   sodipodi:docname="search.svg"
   inkscape:version="0.92.4 (5da689c313, 2019-01-14)">
  <metadata
     id="metadata16">
    <rdf:RDF>
      <cc:Work
         rdf:about="">
        <dc:format>image/svg+xml</dc:format>
        <dc:type
           rdf:resource="http://purl.org/dc/dcmitype/StillImage" />
        <dc:title></dc:title>
      </cc:Work>
    </rdf:RDF>
  </metadata>
  <defs
     id="defs14" />
  <sodipodi:namedview
     pagecolor="#ffffff"
     bordercolor="#666666"
     borderopacity="1"
     objecttolerance="10"
     gridtolerance="10"
     guidetolerance="10"
     inkscape:pageopacity="0"
     inkscape:pageshadow="2"
     inkscape:window-width="732"
     inkscape:window-height="480"
     id="namedview12"
     showgrid="false"
     inkscape:zoom="0.47353425"
     inkscape:cx="249.58501"
     inkscape:cy="249.19"
     inkscape:window-x="0"
     inkscape:window-y="0"
     inkscape:window-maximized="0"
     inkscape:current-layer="e0lirv1yvuvyd1" />
  <style
     id="style2"><![CDATA[#e0lirv1yvuvyd1{pointer-events: all} #e0lirv1yvuvyd1:hover * {animation-play-state: running !important}#e0lirv1yvuvyd5_tr {animation: e0lirv1yvuvyd5_tr__tr 4000ms linear infinite normal forwards}@keyframes e0lirv1yvuvyd5_tr__tr { 0% {transform: translate(250px,450px) rotate(0deg)} 25% {transform: translate(250px,450px) rotate(-17deg)} 75% {transform: translate(250px,450px) rotate(17deg)} 100% {transform: translate(250px,450px) rotate(0deg)} }]]></style>
  <g
     id="e0lirv1yvuvyd2">
    <path
       id="e0lirv1yvuvyd3"
       d="M498.100000,249.400000C498.100000,311.730000,498.100000,374.060000,498.100000,436.390000C498.100000,464.960000,476.550000,491.080000,448.410000,496.430000C444.250000,497.220000,439.950000,497.670000,435.720000,497.670000C311.480000,497.740000,187.240000,497.720000,63,497.720000C32.550000,497.720000,5.960000,474.360000,1.970000,444.050000C1.620000,441.380000,1.380000,438.660000,1.380000,435.970000C1.340000,311.420000,1.350000,186.860000,1.350000,62.310000C1.350000,33.730000,22.910000,7.610000,51.040000,2.270000C55.200000,1.480000,59.500000,1.030000,63.730000,1.030000C188.080000,0.970000,312.420000,0.980000,436.770000,0.980000C465.340000,0.980000,491.500000,22.560000,496.810000,50.670000C497.600000,54.830000,498.050000,59.130000,498.050000,63.360000C498.120000,125.370000,498.100000,187.390000,498.100000,249.400000Z"
       fill="#ffcb28"
       stroke="none"
       stroke-width="1" />
  </g>
  <g
     id="e0lirv1yvuvyd4"
     transform="matrix(1.00000031970445 0 0 1.00000031970445 -15.70027299999998 -4.29992729999998)">
    <g
       id="e0lirv1yvuvyd5_tr"
       transform="translate(250,450) rotate(0)">
      <g
         id="e0lirv1yvuvyd5"
         transform="translate(-250,-450)">
        <path
           id="e0lirv1yvuvyd6"
           d="M345.090000,48.680000C296.640000,13.140000,231.640000,10.680000,180.550000,42.560000C174.630000,46.260000,169.030000,50.470000,163.270000,54.440000C157.300000,60.410000,151.320000,66.390000,145.350000,72.360000C144.850000,73.230000,144.470000,74.190000,143.850000,74.970000C122.650000,101.300000,111.530000,131.420000,111.150000,165.160000C110.360000,235.980000,158.160000,295.750000,227.320000,311.040000C228.330000,311.260000,229.310000,311.610000,230.720000,312.030000C229.590000,313.020000,228.950000,313.640000,228.260000,314.190000C214.980000,324.630000,207.730000,338.300000,207.560000,355.160000C207.280000,382.420000,207.270000,409.680000,207.650000,436.940000C207.830000,449.840000,213.190000,461.030000,222.080000,470.340000C233.630000,482.440000,247.960000,487.270000,264.610000,487.060000C294.420000,486.690000,318.120000,463.550000,318.240000,433.800000C318.350000,407.820000,318.300000,381.830000,318.240000,355.850000C318.220000,346.180000,315.600000,337.190000,310.590000,328.890000C306.020000,321.320000,299.810000,315.390000,292.330000,310.560000C292.830000,310.230000,293.030000,310.040000,293.260000,309.970000C294.360000,309.640000,295.470000,309.350000,296.580000,309.030000C337.820000,297.220000,368.830000,272.430000,388.670000,234.530000C422.210000,170.450000,403.420000,91.460000,345.090000,48.680000ZM324.360000,233.580000C287.790000,270.150000,228.340000,270.220000,191.730000,233.750000C155.290000,197.450000,155.230000,137.770000,191.590000,101.010000C227.990000,64.200000,287.780000,64.360000,324.730000,101.360000C361.100000,137.760000,360.930000,197.010000,324.360000,233.580000Z"
           fill="#01507b"
           stroke="none"
           stroke-width="1" />
        <path
           id="e0lirv1yvuvyd7"
           d="M201.870000,115.510000C222.060000,96.520000,242.850000,89.020000,267.090000,91.590000C276.600000,92.600000,282.730000,99.850000,281.810000,108.720000C280.900000,117.500000,273.210000,123.180000,263.780000,122.350000C244.080000,120.600000,229,128.180000,218.640000,145.070000C212.720000,154.730000,201.070000,156.420000,193.650000,148.690000C189.110000,143.960000,187.790000,136.730000,191.260000,130.990000C195.060000,124.690000,199.570000,118.820000,201.870000,115.510000Z"
           fill="rgb(255,255,255)"
           stroke="none"
           stroke-width="1" />
      </g>
    </g>
  </g>
</svg>

<svg xmlns="http://www.w3.org/2000/svg" id="search" viewBox="0 0 499.17 498.38" width="500" height="500" shape-rendering="geometricPrecision" text-rendering="geometricPrecision" version="1.1">
  <style id="pan">
    @keyframes magnifying_glass_animation__tr{0%,to{transform:translate(250px,450px) rotate(0deg)}25%{transform:translate(250px,450px) rotate(-17deg)}75%{transform:translate(250px,450px) rotate(17deg)}}#magnifying_glass_animation{animation:magnifying_glass_animation__tr 4000ms linear infinite normal forwards}
  </style>
  <g id="background">
    <path id="square" d="M498.1 249.4v186.99c0 28.57-21.55 54.69-49.69 60.04-4.16.79-8.46 1.24-12.69 1.24-124.24.07-248.48.05-372.72.05-30.45 0-57.04-23.36-61.03-53.67-.35-2.67-.59-5.39-.59-8.08-.04-124.55-.03-249.11-.03-373.66 0-28.58 21.56-54.7 49.69-60.04 4.16-.79 8.46-1.24 12.69-1.24C188.08.97 312.42.98 436.77.98c28.57 0 54.73 21.58 60.04 49.69.79 4.16 1.24 8.46 1.24 12.69.07 62.01.05 124.03.05 186.04z" fill="#F3632D" stroke="none" stroke-width="1"/>
  </g>
  <g id="magnifying_glass_top" transform="translate(-15.7 -4.3)">
    <g id="magnifying_glass_animation" transform="translate(250 450)">
      <g id="magnifying_glass" transform="translate(-250 -450)" stroke="none" stroke-width="1">
        <path id="magnifying_glass_edge" d="M345.09 48.68c-48.45-35.54-113.45-38-164.54-6.12-5.92 3.7-11.52 7.91-17.28 11.88l-17.92 17.92c-.5.87-.88 1.83-1.5 2.61-21.2 26.33-32.32 56.45-32.7 90.19-.79 70.82 47.01 130.59 116.17 145.88 1.01.22 1.99.57 3.4.99-1.13.99-1.77 1.61-2.46 2.16-13.28 10.44-20.53 24.11-20.7 40.97-.28 27.26-.29 54.52.09 81.78.18 12.9 5.54 24.09 14.43 33.4 11.55 12.1 25.88 16.93 42.53 16.72 29.81-.37 53.51-23.51 53.63-53.26.11-25.98.06-51.97 0-77.95-.02-9.67-2.64-18.66-7.65-26.96-4.57-7.57-10.78-13.5-18.26-18.33.5-.33.7-.52.93-.59 1.1-.33 2.21-.62 3.32-.94 41.24-11.81 72.25-36.6 92.09-74.5 33.54-64.08 14.75-143.07-43.58-185.85zm-20.73 184.9c-36.57 36.57-96.02 36.64-132.63.17-36.44-36.3-36.5-95.98-.14-132.74 36.4-36.81 96.19-36.65 133.14.35 36.37 36.4 36.2 95.65-.37 132.22z" fill="#000"/>
        <path id="magnifying_glass_shine" d="M201.87 115.51c20.19-18.99 40.98-26.49 65.22-23.92 9.51 1.01 15.64 8.26 14.72 17.13-.91 8.78-8.6 14.46-18.03 13.63-19.7-1.75-34.78 5.83-45.14 22.72-5.92 9.66-17.57 11.35-24.99 3.62-4.54-4.73-5.86-11.96-2.39-17.7 3.8-6.3 8.31-12.17 10.61-15.48z" fill="#FFF"/>
      </g>
    </g>
  </g>
</svg>
